X: 14182
T: Down the Burn Davie
%R: reel
B: James Oswald "The Caledonian Pocket Companion" v.1 b.4 p.18 #2 (and top 7 staves of p.19)
S: https://ia800501.us.archive.org/18/items/caledonianpocket01rugg/caledonianpocket01rugg_bw.pdf
Z: 2020 John Chambers <jc:trillian.mit.edu>
M: C
L: 1/8
K: G
B2 |\
{A}G3F (EF)(GA) | B2(B/c/d) G2(Bc) | d2G2 (ed)(cB) | A6 (G/A/B) | {A}G3F (EF)(GA) | B2(AG) g3f | e3d (Bd)(ed) | B6 :|
|: d2 |\
(ef)(gd) (Bc)(dB) | (ed)(cB) A2(Bc) | {Bc}d2G2 (ed)(cB) | {B}A6 B2 | {A}G3F (EF)(GA) | (BA)(BG) g3f | e>ged (Bd)(ed) | B6 :|
|: A2 |\
(GF)(E^D) (EF)(GA) | (Be)(dF) G2(gf) | Te2(dB) (AG) (dB) | {B}A6 BA | (GA)(GF) (E>F) (G/B/A/c/) | (BA/G/) AB g3f |
(e/d/e/)g/ ed (B/A/B/d/) ed | B6 :: d2 | (e/g/f/a/) gd BGdG | (ee/d/) (d/c/)(c/B/) {B}A2(Bc) | dFGe d(g/f/) (e/d/)(c/B/) |
{B}A6 (BA) | G(F/G/) E^D E/(G/F/A/ G/B/A/c/) | (B/c/d/e/) (d/B/A/G/) g3f | (e/d/e/g/) (e/d/B/e/) (d/B/d/e/) (d/B/A/d/) | B6 :|
